src/32x32/places/folder-gruvbox-mix-aqua-remote-open.svg

<svg xmlns="http://www.w3.org/2000/svg" width="32" height="32" version="1">
 <rect style="opacity:0.2" width="28" height="18" x="2" y="11" rx="1.4" ry="1.4"/>
 <path style="fill:#477a5b" d="M 2,22.6 C 2,23.376 2.6244,24 3.4,24 H 28.6 C 29.376,24 30,23.376 30,22.6 V 7.4 C 30,6.6244 29.376,6 28.6,6 H 16 C 13.9,6 13.2,3 11.1,3 H 3.4 C 2.6244,3 2,3.6244 2,4.4"/>
 <rect style="opacity:0.2" width="28" height="15" x="2" y="12" rx="1.4" ry="1.4"/>
 <rect style="fill:#DCE0BB" width="24" height="11" x="4" y="8" rx="1.4" ry="1.4"/>
 <rect style="fill:#8bba7f" width="28" height="15" x="2" y="13" rx="1.4" ry="1.4"/>
 <path style="opacity:0.1;fill:#DCE0BB" d="M 3.4004,3 C 2.6248,3 2,3.6248 2,4.4004 V 5.4004 C 2,4.6248 2.6248,4 3.4004,4 H 11.1 C 13.2,4 13.9,7 16,7 H 28.6 C 29.375,7 30,7.6248 30,8.4004 V 7.4004 C 30,6.6248 29.375,6 28.6,6 H 16 C 13.9,6 13.2,3 11.1,3 Z"/>
 <path style="fill:#39433D" d="M 15 16.109375 C 13.451996 16.525744 12.522099 17.570969 12.181641 19 L 10 19 L 10 21 L 12.181641 21 C 12.523095 22.428118 13.452818 23.474117 15 23.890625 L 15 16.109375 z M 17 16.109375 L 17 23.890625 C 18.547182 23.474117 19.476905 22.428118 19.818359 21 L 22 21 L 22 19 L 19.818359 19 C 19.477901 17.570969 18.548004 16.525744 17 16.109375 z"/>
</svg>

<?xml version="1.0" encoding="UTF-8"?>
<svg width="32" height="32" version="1" xmlns="http://www.w3.org/2000/svg">
 <rect x="2" y="11" width="28" height="18" rx="1.4" ry="1.4" opacity=".2"/>
 <path d="m2 22.6c0 0.776 0.6244 1.4 1.4 1.4h25.2c0.776 0 1.4-0.624 1.4-1.4v-15.2c0-0.7756-0.624-1.4-1.4-1.4h-12.6c-2.1 0-2.8-3-4.9-3h-7.7c-0.7756 0-1.4 0.6244-1.4 1.4" fill="#477a5b"/>
 <rect x="2" y="12" width="28" height="15" rx="1.4" ry="1.4" opacity=".2"/>
 <rect x="4" y="8" width="24" height="11" rx="1.4" ry="1.4" fill="#DCE0BB"/>
 <rect x="2" y="13" width="28" height="15" rx="1.4" ry="1.4" fill="#8bba7f"/>
 <path d="m3.4004 3c-0.7756 0-1.4004 0.6248-1.4004 1.4004v1c0-0.7756 0.6248-1.4004 1.4004-1.4004h7.6996c2.1 0 2.8 3 4.9 3h12.6c0.775 0 1.4 0.6248 1.4 1.4004v-1c0-0.7756-0.625-1.4004-1.4-1.4004h-12.6c-2.1 0-2.8-3-4.9-3z" fill="#DCE0BB" opacity=".1"/>
 <path d="m15 16.109c-1.548 0.41637-2.4779 1.4616-2.8184 2.8906h-2.1816v2h2.1816c0.34145 1.4281 1.2712 2.4741 2.8184 2.8906v-7.7812zm2 0v7.7812c1.5472-0.41651 2.4769-1.4625 2.8184-2.8906h2.1816v-2h-2.1816c-0.34046-1.429-1.2704-2.4743-2.8184-2.8906z" fill="#39433D"/>
</svg>
